X: 21562
T: The Thistle's Beard
Q: "Brisk"
%R: hornpipe, reel
B: James Oswald "The Caledonian Pocket Companion" v.2 p.156 #2
Z: 2018 John Chambers <jc:trillian.mit.edu>
M: C|
L: 1/8
K: D
|:\
D2d>e f>ed>B | A>FD>F E2E2 |\
D2d>e f>ed>B | A>FE>F D2D2 :|\
|:\
f>ed>B A>Bd>e |
f>ad>f e2e2 |\
f>ed>B A>Bf>e | d>BA>F D2D2 :|\
|:\
d2F>A D>AF>A | D>AF>A G2E2 |
d2F>A D>AF>A | G>BE>A F2D2 :|\
|:\
f2d>f e>Ac>A | d>fB>e c2A2 |\
B2G>B A>dF>A | G>BE>A F2D2 :|


